X: 23885
T: Lobster, The
R: reel
M: 4/4
K: Gmajor
DEGB A2 GB|A2 GB ABGE|DEGB ABGA|1 BGdB ABGE:|2 dBAc BGGB||
d2 de dG G2|dG G2 AGEG|d2 de dBBA|GABG AGEG|
dege d2 ge|d2 BG AGEG|c2 cA BABA|GABG AGEG||

